X:1
T:Title
L:1/8
Q:1/4=100
M:6/8
K:Eb
V:1 treble nm="Church Organ, Staff"
V:1
 e2 d c2 B | c2 d c2 B | e2 d c2 B | c2 d c2 B | c2 B A2 G | F2 G A2 c | B2 A G2 E | F3 F2 E | E6 | %9
w: By~C.~Gounod * * *|||||||||
 G,2 =A, B,2 A, | G,2 =A, _G,2 D, | B,2[K:treble] C E2 D | C2 B,[K:bass] =A,2 F, | G,2 =A, B,2 F, | %14
w: |||||
 G,2 =A, B,2 F, | G,2 =A, B,2 F, | G,3 G,F,E, | B,3 B,3 | e2 d c2 B | c2 d c2 B | e2 d c2 B | %21
w: |||||||
 c2 d c2 B | c2 B A2 G | F2 G A2 c | B2 A G2 E | F3 F2 E | D3 D3 | c2 d e2 d | c2 d =B2 G | %29
w: ||||||||
 c2 d e2 d | c2 d =B2 G | c2 B A2 F | B2 A G2 G | c2 d e2 E | E3 F3 | G3 G3 | e2 d c2 B | %37
w: ||||||||
 c2 d c2 B | e2 d c2 B | c2 d c2 B | c2 B A2 G | F2 G A2 c | B2 A G2 E | F3 F2 E | E3 .E3 |] %45
w: ||||||||

